icons/sqlite/sqlite-original-wordmark.svg

<?xml version="1.0" encoding="UTF-8"?>
<svg xmlns="http://www.w3.org/2000/svg" xmlns:xlink="http://www.w3.org/1999/xlink" width="128px" height="128px" viewBox="0 0 128 128" version="1.1">
<defs>
<linearGradient id="linear0" gradientUnits="userSpaceOnUse" x1="-15.615" y1="-9.1083" x2="-6.741" y2="-9.1083" gradientTransform="matrix(-0.000000177761,4.08678,-4.063238,-0.000000178785,-14.44804,103.80993)">
<stop offset="0" style="stop-color:rgb(58.823529%,84.705882%,96.078431%);stop-opacity:1;"/>
<stop offset="0.92024" style="stop-color:rgb(5.882353%,49.803922%,80%);stop-opacity:1;"/>
<stop offset="1" style="stop-color:rgb(5.882353%,49.803922%,80%);stop-opacity:1;"/>
</linearGradient>
</defs>
<g id="surface1">
<path style=" stroke:none;fill-rule:nonzero;fill:rgb(0%,22.745098%,34.117647%);fill-opacity:1;" d="M 48.648438 63.613281 C 46.945312 63.613281 45.558594 64.125 44.492188 65.140625 C 43.429688 66.15625 42.894531 67.488281 42.894531 69.121094 C 42.894531 69.964844 43.023438 70.738281 43.289062 71.445312 C 43.554688 72.152344 43.964844 72.808594 44.519531 73.402344 C 45.070312 73.996094 46.175781 74.796875 47.820312 75.824219 C 49.84375 77.066406 51.164062 78.074219 51.800781 78.859375 C 52.4375 79.644531 52.753906 80.46875 52.753906 81.328125 C 52.753906 82.476562 52.378906 83.398438 51.601562 84.085938 C 50.828125 84.773438 49.792969 85.121094 48.503906 85.121094 C 47.152344 85.121094 45.972656 84.636719 44.960938 83.683594 C 43.945312 82.730469 43.433594 81.46875 43.421875 79.882812 L 42.792969 79.882812 L 42.792969 85.632812 L 43.421875 85.632812 C 43.613281 85.085938 43.882812 84.808594 44.230469 84.808594 C 44.398438 84.808594 44.789062 84.921875 45.402344 85.140625 C 46.890625 85.671875 48.109375 85.933594 49.070312 85.933594 C 50.722656 85.933594 52.140625 85.347656 53.3125 84.164062 C 54.488281 82.980469 55.082031 81.550781 55.082031 79.882812 C 55.082031 78.589844 54.691406 77.4375 53.925781 76.4375 C 53.152344 75.433594 51.660156 74.261719 49.425781 72.921875 C 47.503906 71.757812 46.253906 70.816406 45.675781 70.078125 C 45.097656 69.339844 44.800781 68.527344 44.800781 67.632812 C 44.800781 66.660156 45.15625 65.886719 45.855469 65.304688 C 46.550781 64.726562 47.460938 64.4375 48.609375 64.4375 C 49.890625 64.4375 50.964844 64.824219 51.8125 65.59375 C 52.660156 66.371094 53.148438 67.441406 53.292969 68.820312 L 53.925781 68.820312 L 53.925781 63.835938 L 53.339844 63.835938 C 53.265625 64.09375 53.199219 64.253906 53.140625 64.328125 C 53.078125 64.402344 52.96875 64.4375 52.792969 64.4375 C 52.59375 64.4375 52.230469 64.351562 51.714844 64.183594 C 50.609375 63.808594 49.589844 63.613281 48.648438 63.613281 Z M 69.246094 63.613281 C 67.167969 63.613281 65.28125 64.109375 63.574219 65.09375 C 61.867188 66.082031 60.515625 67.445312 59.515625 69.1875 C 58.523438 70.925781 58.023438 72.777344 58.023438 74.746094 C 58.023438 77.390625 58.886719 79.75 60.621094 81.816406 C 62.363281 83.882812 64.441406 85.171875 66.855469 85.664062 C 67.410156 85.953125 68.203125 86.699219 69.238281 87.914062 C 70.398438 89.273438 71.386719 90.257812 72.199219 90.84375 C 73.003906 91.433594 73.882812 91.863281 74.808594 92.148438 C 75.730469 92.429688 76.730469 92.566406 77.8125 92.566406 C 79.121094 92.566406 80.296875 92.339844 81.328125 91.867188 L 81.097656 91.289062 C 80.496094 91.507812 79.855469 91.613281 79.183594 91.613281 C 78.273438 91.613281 77.347656 91.308594 76.421875 90.699219 C 75.496094 90.089844 74.335938 88.925781 72.960938 87.210938 C 72.3125 86.386719 71.863281 85.867188 71.613281 85.664062 C 74.253906 85.144531 76.429688 83.859375 78.125 81.796875 C 79.820312 79.734375 80.664062 77.382812 80.664062 74.746094 C 80.664062 71.613281 79.558594 68.984375 77.359375 66.839844 C 75.160156 64.695312 72.453125 63.613281 69.246094 63.613281 Z M 82.101562 63.613281 L 82.136719 64.296875 C 83.519531 64.296875 84.292969 64.703125 84.464844 65.527344 C 84.53125 65.824219 84.5625 66.371094 84.570312 67.152344 L 84.558594 82.152344 C 84.542969 83.273438 84.386719 83.988281 84.082031 84.296875 C 83.777344 84.605469 83.257812 84.800781 82.511719 84.875 L 82.480469 85.554688 L 96.273438 85.554688 L 96.628906 82.152344 L 95.996094 82.152344 C 95.820312 83.078125 95.40625 83.742188 94.746094 84.117188 C 94.089844 84.496094 92.925781 84.6875 91.246094 84.6875 L 89.9375 84.6875 C 88.425781 84.6875 87.550781 84.136719 87.320312 83.03125 C 87.273438 82.8125 87.257812 82.578125 87.253906 82.316406 L 87.308594 67.152344 C 87.308594 66.035156 87.449219 65.285156 87.742188 64.917969 C 88.03125 64.550781 88.566406 64.347656 89.332031 64.296875 L 89.300781 63.613281 Z M 69.46875 64.4375 C 71.808594 64.4375 73.726562 65.367188 75.203125 67.238281 C 76.683594 69.117188 77.414062 71.683594 77.414062 74.933594 C 77.414062 78.015625 76.671875 80.484375 75.183594 82.339844 C 73.695312 84.195312 71.710938 85.121094 69.246094 85.121094 C 66.878906 85.121094 64.960938 84.167969 63.488281 82.25 C 62.015625 80.335938 61.285156 77.851562 61.285156 74.789062 C 61.285156 71.648438 62.023438 69.132812 63.507812 67.25 C 64.992188 65.375 66.980469 64.4375 69.46875 64.4375 Z M 101.191406 67.664062 C 100.859375 67.664062 100.597656 67.78125 100.410156 68.007812 C 100.210938 68.238281 100.152344 68.515625 100.21875 68.851562 C 100.285156 69.183594 100.472656 69.464844 100.765625 69.710938 C 101.050781 69.949219 101.367188 70.078125 101.703125 70.078125 C 102.027344 70.078125 102.277344 69.949219 102.453125 69.710938 C 102.632812 69.464844 102.6875 69.183594 102.621094 68.851562 C 102.550781 68.515625 102.371094 68.238281 102.101562 68.007812 C 101.824219 67.78125 101.519531 67.664062 101.191406 67.664062 Z M 110.289062 69.964844 C 109.722656 72.175781 108.480469 73.375 106.578125 73.566406 L 106.597656 74.199219 L 108.820312 74.199219 L 108.777344 81.695312 C 108.78125 82.976562 108.816406 83.828125 108.910156 84.261719 C 109.128906 85.300781 109.804688 85.832031 110.933594 85.832031 C 112.566406 85.832031 114.28125 84.832031 116.070312 82.828125 L 115.53125 82.363281 C 114.238281 83.679688 113.09375 84.339844 112.09375 84.339844 C 111.476562 84.339844 111.097656 83.988281 110.953125 83.285156 C 110.917969 83.117188 110.902344 82.914062 110.902344 82.683594 L 110.921875 74.199219 L 114.316406 74.199219 L 114.28125 73.191406 L 110.933594 73.191406 L 110.933594 69.964844 Z M 123.414062 72.789062 C 121.515625 72.789062 119.972656 73.71875 118.769531 75.558594 C 117.578125 77.402344 117.207031 79.445312 117.675781 81.695312 C 117.953125 83.011719 118.503906 84.03125 119.347656 84.753906 C 120.1875 85.472656 121.257812 85.828125 122.53125 85.828125 C 123.71875 85.828125 125.371094 85.527344 126.070312 84.917969 C 126.765625 84.3125 127.410156 83.324219 128.003906 81.972656 L 127.527344 81.472656 C 126.578125 83.222656 124.667969 84.105469 123.226562 84.105469 C 121.242188 84.105469 120.03125 83.011719 119.578125 80.839844 C 119.519531 80.558594 119.472656 80.261719 119.445312 79.949219 C 121.804688 79.574219 123.589844 78.910156 124.792969 77.949219 C 126.003906 76.988281 127.210938 75.964844 126.984375 74.890625 C 126.851562 74.25 126.519531 73.746094 126.011719 73.367188 C 125.496094 72.988281 124.160156 72.789062 123.414062 72.789062 Z M 102.664062 72.867188 L 98.574219 73.8125 L 98.574219 74.546875 L 99.988281 74.371094 C 100.675781 74.371094 101.078125 74.679688 101.207031 75.300781 C 101.246094 75.511719 101.277344 75.800781 101.285156 76.167969 L 101.238281 82.898438 C 101.226562 83.824219 101.125 84.367188 100.917969 84.53125 C 100.710938 84.691406 100.164062 84.773438 99.273438 84.773438 L 99.246094 85.410156 L 105.738281 85.410156 L 105.726562 84.773438 C 104.828125 84.773438 104.242188 84.703125 103.980469 84.5625 C 103.726562 84.421875 103.546875 84.171875 103.46875 83.785156 C 103.414062 83.507812 103.386719 83.027344 103.382812 82.363281 L 103.402344 72.867188 Z M 122.375 74.113281 C 122.769531 74.113281 123.152344 74.265625 123.535156 74.566406 C 123.917969 74.867188 124.148438 75.207031 124.222656 75.570312 C 124.59375 77.355469 123.015625 78.59375 119.464844 79.28125 C 119.367188 77.976562 119.589844 76.792969 120.164062 75.726562 C 120.734375 74.65625 121.476562 74.113281 122.375 74.113281 Z M 122.375 74.113281 "/>
<path style=" stroke:none;fill-rule:nonzero;fill:rgb(4.705882%,49.803922%,80%);fill-opacity:1;" d="M 39.492188 37.9375 L 4.289062 37.9375 C 1.929688 37.9375 0 39.878906 0 42.25 L 0 81.292969 C 0 83.664062 1.929688 85.605469 4.289062 85.605469 L 27.472656 85.605469 C 27.210938 74.003906 31.148438 51.488281 39.492188 37.933594 Z M 39.492188 37.9375 "/>
<path style=" stroke:none;fill-rule:nonzero;fill:url(#linear0);" d="M 38.207031 39.195312 L 4.289062 39.195312 C 2.613281 39.195312 1.25 40.5625 1.25 42.25 L 1.25 78.445312 C 8.933594 75.480469 20.460938 72.917969 28.433594 73.039062 C 30.039062 64.609375 34.746094 48.097656 38.207031 39.191406 Z M 38.207031 39.195312 "/>
<path style=" stroke:none;fill-rule:nonzero;fill:rgb(0%,22.745098%,34.117647%);fill-opacity:1;" d="M 47.699219 36.65625 C 45.289062 34.496094 42.367188 35.363281 39.492188 37.933594 C 39.0625 38.316406 38.632812 38.738281 38.207031 39.191406 C 33.28125 44.453125 28.707031 54.191406 27.289062 61.632812 C 27.839844 62.757812 28.273438 64.199219 28.558594 65.300781 C 28.628906 65.582031 28.695312 65.851562 28.746094 66.074219 C 28.875 66.609375 28.941406 66.957031 28.941406 66.957031 C 28.941406 66.957031 28.894531 66.785156 28.714844 66.257812 C 28.679688 66.15625 28.640625 66.042969 28.59375 65.910156 C 28.578125 65.859375 28.550781 65.796875 28.519531 65.726562 C 28.199219 64.972656 27.308594 63.386719 26.917969 62.695312 C 26.582031 63.6875 26.289062 64.617188 26.042969 65.457031 C 27.167969 67.535156 27.855469 71.101562 27.855469 71.101562 C 27.855469 71.101562 27.800781 70.867188 27.515625 70.066406 C 27.261719 69.351562 26.007812 67.140625 25.707031 66.621094 C 25.199219 68.511719 25 69.785156 25.179688 70.097656 C 25.535156 70.699219 25.875 71.734375 26.171875 72.886719 C 26.839844 75.472656 27.300781 78.617188 27.300781 78.617188 C 27.300781 78.617188 27.316406 78.828125 27.339844 79.148438 C 27.25 81.320312 27.304688 83.570312 27.472656 85.609375 C 27.691406 88.300781 28.113281 90.613281 28.640625 91.855469 L 29.003906 91.65625 C 28.222656 89.214844 27.90625 86.015625 28.042969 82.328125 C 28.253906 76.691406 29.542969 69.890625 31.925781 62.808594 C 35.957031 52.109375 41.539062 43.527344 46.652344 39.429688 C 41.992188 43.664062 35.6875 57.363281 33.796875 62.441406 C 31.683594 68.117188 30.1875 73.449219 29.28125 78.5625 C 30.84375 73.773438 35.878906 71.714844 35.878906 71.714844 C 35.878906 71.714844 38.347656 68.652344 41.234375 64.269531 C 39.507812 64.667969 36.664062 65.347656 35.714844 65.746094 C 34.308594 66.339844 33.933594 66.542969 33.933594 66.542969 C 33.933594 66.542969 38.480469 63.761719 42.375 62.496094 C 47.738281 54.003906 53.582031 41.9375 47.699219 36.65625 "/>
</g>
</svg>

<svg version="1.1" viewBox="0 0 128 128" xmlns="http://www.w3.org/2000/svg">
 <defs>
  <linearGradient id="a" x1="-15.615" x2="-6.741" y1="-9.1083" y2="-9.1083" gradientTransform="matrix(-1.7776e-7 4.0868 -4.0632 -1.7878e-7 -14.448 103.81)" gradientUnits="userSpaceOnUse">
   <stop stop-color="#95d7f4" offset="0"/>
   <stop stop-color="#0f7fcc" offset=".92024"/>
   <stop stop-color="#0f7fcc" offset="1"/>
  </linearGradient>
 </defs>
 <g>
  <path d="m48.648 63.613c-1.7031 0-3.0898 0.51172-4.1562 1.5273-1.0625 1.0156-1.5977 2.3477-1.5977 3.9805 0 0.84375 0.12891 1.6172 0.39453 2.3242 0.26563 0.70703 0.67578 1.3633 1.2305 1.957 0.55078 0.59375 1.6562 1.3945 3.3008 2.4219 2.0234 1.2422 3.3438 2.25 3.9805 3.0352s0.95312 1.6094 0.95312 2.4688c0 1.1484-0.375 2.0703-1.1523 2.7578-0.77344 0.6875-1.8086 1.0352-3.0977 1.0352-1.3516 0-2.5312-0.48438-3.543-1.4375-1.0156-0.95312-1.5273-2.2148-1.5391-3.8008h-0.62891v5.75h0.62891c0.19141-0.54687 0.46094-0.82422 0.80859-0.82422 0.16797 0 0.55859 0.11328 1.1719 0.33203 1.4883 0.53125 2.707 0.79297 3.668 0.79297 1.6523 0 3.0703-0.58594 4.2422-1.7695 1.1758-1.1836 1.7695-2.6133 1.7695-4.2812 0-1.293-0.39062-2.4453-1.1562-3.4453-0.77344-1.0039-2.2656-2.1758-4.5-3.5156-1.9219-1.1641-3.1719-2.1055-3.75-2.8438s-0.875-1.5508-0.875-2.4453c0-0.97266 0.35547-1.7461 1.0547-2.3281 0.69531-0.57813 1.6055-0.86719 2.7539-0.86719 1.2812 0 2.3555 0.38672 3.2031 1.1562 0.84766 0.77734 1.3359 1.8477 1.4805 3.2266h0.63281v-4.9844h-0.58594c-0.074219 0.25781-0.14062 0.41797-0.19922 0.49219-0.0625 0.074219-0.17188 0.10938-0.34766 0.10938-0.19922 0-0.5625-0.085938-1.0781-0.25391-1.1055-0.375-2.125-0.57031-3.0664-0.57031zm20.598 0c-2.0781 0-3.9648 0.49609-5.6719 1.4805-1.707 0.98828-3.0586 2.3516-4.0586 4.0938-0.99219 1.7383-1.4922 3.5898-1.4922 5.5586 0 2.6445 0.86328 5.0039 2.5977 7.0703 1.7422 2.0664 3.8203 3.3555 6.2344 3.8477 0.55469 0.28906 1.3477 1.0352 2.3828 2.25 1.1602 1.3594 2.1484 2.3438 2.9609 2.9297 0.80469 0.58984 1.6836 1.0195 2.6094 1.3047 0.92188 0.28125 1.9219 0.41797 3.0039 0.41797 1.3086 0 2.4844-0.22656 3.5156-0.69922l-0.23047-0.57813c-0.60156 0.21875-1.2422 0.32422-1.9141 0.32422-0.91016 0-1.8359-0.30469-2.7617-0.91406s-2.0859-1.7734-3.4609-3.4883c-0.64844-0.82422-1.0977-1.3438-1.3477-1.5469 2.6406-0.51953 4.8164-1.8047 6.5117-3.8672s2.5391-4.4141 2.5391-7.0508c0-3.1328-1.1055-5.7617-3.3047-7.9062-2.1992-2.1445-4.9062-3.2266-8.1133-3.2266zm12.855 0 0.035157 0.68359c1.3828 0 2.1562 0.40625 2.3281 1.2305 0.066406 0.29688 0.097656 0.84375 0.10547 1.625l-0.011718 15c-0.015625 1.1211-0.17188 1.8359-0.47656 2.1445-0.30469 0.30859-0.82422 0.50391-1.5703 0.57812l-0.03125 0.67969h13.793l0.35547-3.4023h-0.63281c-0.17578 0.92578-0.58984 1.5898-1.25 1.9648-0.65625 0.37891-1.8203 0.57031-3.5 0.57031h-1.3086c-1.5117 0-2.3867-0.55078-2.6172-1.6562-0.046874-0.21875-0.0625-0.45312-0.066406-0.71484l0.054688-15.164c0-1.1172 0.14062-1.8672 0.43359-2.2344 0.28906-0.36719 0.82422-0.57031 1.5898-0.62109l-0.03125-0.68359zm-12.633 0.82422c2.3398 0 4.2578 0.92969 5.7344 2.8008 1.4805 1.8789 2.2109 4.4453 2.2109 7.6953 0 3.082-0.74219 5.5508-2.2305 7.4062-1.4883 1.8555-3.4727 2.7812-5.9375 2.7812-2.3672 0-4.2852-0.95312-5.7578-2.8711-1.4727-1.9141-2.2031-4.3984-2.2031-7.4609 0-3.1406 0.73828-5.6562 2.2227-7.5391 1.4844-1.875 3.4727-2.8125 5.9609-2.8125zm31.723 3.2266c-0.33203 0-0.59375 0.11719-0.78125 0.34375-0.19922 0.23047-0.25781 0.50781-0.19141 0.84375 0.066406 0.33203 0.25391 0.61328 0.54688 0.85938 0.28516 0.23828 0.60156 0.36719 0.9375 0.36719 0.32422 0 0.57422-0.12891 0.75-0.36719 0.17969-0.24609 0.23438-0.52734 0.16797-0.85938-0.070313-0.33594-0.25-0.61328-0.51953-0.84375-0.27734-0.22656-0.58203-0.34375-0.91016-0.34375zm9.0977 2.3008c-0.56641 2.2109-1.8086 3.4102-3.7109 3.6016l0.019531 0.63281h2.2227l-0.042968 7.4961c0.003906 1.2812 0.039062 2.1328 0.13281 2.5664 0.21875 1.0391 0.89453 1.5703 2.0234 1.5703 1.6328 0 3.3477-1 5.1367-3.0039l-0.53906-0.46484c-1.293 1.3164-2.4375 1.9766-3.4375 1.9766-0.61719 0-0.99609-0.35156-1.1406-1.0547-0.035156-0.16797-0.050781-0.37109-0.050781-0.60156l0.019531-8.4844h3.3945l-0.035156-1.0078h-3.3477v-3.2266zm13.125 2.8242c-1.8984 0-3.4414 0.92969-4.6445 2.7695-1.1914 1.8438-1.5625 3.8867-1.0938 6.1367 0.27734 1.3164 0.82812 2.3359 1.6719 3.0586 0.83984 0.71875 1.9102 1.0742 3.1836 1.0742 1.1875 0 2.8398-0.30078 3.5391-0.91016 0.69531-0.60547 1.3398-1.5938 1.9336-2.9453l-0.47656-0.5c-0.94922 1.75-2.8594 2.6328-4.3008 2.6328-1.9844 0-3.1953-1.0938-3.6484-3.2656-0.058594-0.28125-0.10547-0.57812-0.13281-0.89062 2.3594-0.375 4.1445-1.0391 5.3477-2 1.2109-0.96094 2.418-1.9844 2.1914-3.0586-0.13281-0.64062-0.46484-1.1445-0.97266-1.5234-0.51562-0.37891-1.8516-0.57813-2.5977-0.57813zm-20.75 0.078126-4.0898 0.94531v0.73438l1.4141-0.17578c0.6875 0 1.0898 0.30859 1.2188 0.92969 0.039063 0.21094 0.070313 0.5 0.078125 0.86719l-0.046875 6.7305c-0.011719 0.92578-0.11328 1.4688-0.32031 1.6328-0.20703 0.16016-0.75391 0.24219-1.6445 0.24219l-0.027344 0.63672h6.4922l-0.011719-0.63672c-0.89844 0-1.4844-0.070313-1.7461-0.21094-0.25391-0.14062-0.43359-0.39062-0.51172-0.77734-0.054688-0.27734-0.082031-0.75781-0.085938-1.4219l0.019532-9.4961zm19.711 1.2461c0.39453 0 0.77734 0.15234 1.1602 0.45312 0.38281 0.30078 0.61328 0.64062 0.6875 1.0039 0.37109 1.7852-1.207 3.0234-4.7578 3.7109-0.097656-1.3047 0.125-2.4883 0.69922-3.5547 0.57031-1.0703 1.3125-1.6133 2.2109-1.6133z" fill="#003956"/>
  <path d="m39.492 37.938h-35.203c-2.3594 0-4.2891 1.9414-4.2891 4.3125v39.043c0 2.3711 1.9297 4.3125 4.2891 4.3125h23.184c-0.26172-11.602 3.6758-34.117 12.02-47.672z" fill="#0b7fcc"/>
  <path d="m38.207 39.195h-33.918c-1.6758 0-3.0391 1.3672-3.0391 3.0547v36.195c7.6836-2.9648 19.211-5.5273 27.184-5.4062 1.6055-8.4297 6.3125-24.941 9.7734-33.848z" fill="url(#a)"/>
  <path d="m47.699 36.656c-2.4102-2.1602-5.332-1.293-8.207 1.2773-0.42969 0.38281-0.85938 0.80469-1.2852 1.2578-4.9258 5.2617-9.5 15-10.918 22.441 0.55078 1.125 0.98438 2.5664 1.2695 3.668 0.070312 0.28125 0.13672 0.55078 0.1875 0.77344 0.12891 0.53516 0.19531 0.88281 0.19531 0.88281s-0.046875-0.17188-0.22656-0.69922c-0.035156-0.10156-0.074219-0.21484-0.12109-0.34766-0.015625-0.050781-0.042969-0.11328-0.074219-0.18359-0.32031-0.75391-1.2109-2.3398-1.6016-3.0312-0.33594 0.99219-0.62891 1.9219-0.875 2.7617 1.125 2.0781 1.8125 5.6445 1.8125 5.6445s-0.054688-0.23437-0.33984-1.0352c-0.25391-0.71484-1.5078-2.9258-1.8086-3.4453-0.50781 1.8906-0.70703 3.1641-0.52734 3.4766 0.35547 0.60156 0.69531 1.6367 0.99219 2.7891 0.66797 2.5859 1.1289 5.7305 1.1289 5.7305s0.015625 0.21094 0.039063 0.53125c-0.089844 2.1719-0.035156 4.4219 0.13281 6.4609 0.21875 2.6914 0.64062 5.0039 1.168 6.2461l0.36328-0.19922c-0.78125-2.4414-1.0977-5.6406-0.96094-9.3281 0.21094-5.6367 1.5-12.438 3.8828-19.52 4.0312-10.699 9.6133-19.281 14.727-23.379-4.6602 4.2344-10.965 17.934-12.855 23.012-2.1133 5.6758-3.6094 11.008-4.5156 16.121 1.5625-4.7891 6.5977-6.8477 6.5977-6.8477s2.4688-3.0625 5.3555-7.4453c-1.7266 0.39844-4.5703 1.0781-5.5195 1.4766-1.4062 0.59375-1.7812 0.79688-1.7812 0.79688s4.5469-2.7812 8.4414-4.0469c5.3633-8.4922 11.207-20.559 5.3242-25.84" fill="#003956"/>
 </g>
</svg>
